X: 45
T:Nick Nack Paddy Whack
% Nottingham Music Database
S:Kevin Briggs, via EF
M:4/4
L:1/4
K:G
"G"dB d2|"G"dB d2|"C"ed cB|"D7"AB cB/2c/2|"G"dG "G/b"GG|\
"G""C"G/2A/2B/2c/2 "G""A7/c+"d2|"C""D"dA "D7"Ac|"G"BA Gz:|<end>
<start>
